src/assets/rclone.svg

<svg xmlns="http://www.w3.org/2000/svg" width="512" height="486" fill="none" viewBox="0 0 512 486"><path fill="#70caf2" d="M491.007 250.581c-16.189-28.041-39.747-49.176-66.819-62.371a170.4 170.4 0 0 1-19.947 53.924l-15.668 27.19c10.436 5.798 19.521 14.333 25.928 25.429 18.824 32.598 7.647 74.296-24.959 93.12-32.598 18.823-74.297 7.654-93.12-24.952l-31.615-54.673h-51.019l-25.509 44.179 31.637 54.666c43.225 74.861 138.943 100.51 213.805 57.285 74.854-43.217 100.503-138.935 57.286-213.797"/><path fill="#b4e3f9" d="M334.246 20.993C259.384-22.224 163.666 3.425 120.448 78.28c-16.196 28.041-22.713 59.01-20.606 89.054a170.4 170.4 0 0 1 56.676-9.687l31.373-.029c-.198-11.933 2.657-24.071 9.056-35.159 18.831-32.606 60.522-43.783 93.128-24.952 32.605 18.824 43.775 60.515 24.951 93.12l-31.534 54.717 25.502 44.186 51.018-.007 31.52-54.732c43.225-74.854 17.576-170.58-57.286-213.797"/><path fill="#3f79ad" d="m207.215 414.437-15.72-27.161c-10.237 6.143-22.17 9.739-34.976 9.739-37.654 0-68.176-30.522-68.176-68.176 0-37.648 30.522-68.169 68.176-68.169l63.15-.044 25.516-44.179-25.516-44.179-63.157.059C70.07 172.327 0 242.404 0 328.839c0 86.442 70.07 156.519 156.512 156.519 32.371 0 62.437-9.834 87.396-26.662-14.281-12.248-26.764-27.065-36.693-44.259"/></svg>

<svg width="512" height="486" viewBox="0 0 512 486" fill="none" xmlns="http://www.w3.org/2000/svg">
<path d="M491.007 250.581C474.818 222.54 451.26 201.405 424.188 188.21C420.724 206.703 414.171 224.933 404.241 242.134L388.573 269.324C399.009 275.122 408.094 283.657 414.501 294.753C433.325 327.351 422.148 369.049 389.542 387.873C356.944 406.696 315.245 395.527 296.422 362.921L264.807 308.248H213.788L188.279 352.427L219.916 407.093C263.141 481.954 358.859 507.603 433.721 464.378C508.575 421.161 534.224 325.443 491.007 250.581Z" fill="#70CAF2"/>
<path d="M334.246 20.9933C259.384 -22.224 163.666 3.42456 120.448 78.2788C104.252 106.32 97.7353 137.289 99.8415 167.333C117.586 161.088 136.652 157.646 156.518 157.646L187.891 157.617C187.693 145.684 190.548 133.546 196.947 122.458C215.778 89.8519 257.469 78.6751 290.075 97.5061C322.68 116.33 333.85 158.021 315.026 190.626L283.492 245.343L308.994 289.529L360.012 289.522L391.532 234.79C434.757 159.936 409.108 64.2106 334.246 20.9933Z" fill="#B4E3F9"/>
<path d="M207.215 414.437L191.495 387.276C181.258 393.419 169.325 397.015 156.519 397.015C118.865 397.015 88.343 366.493 88.343 328.839C88.343 291.191 118.865 260.67 156.519 260.67L219.669 260.626L245.185 216.447L219.669 172.268L156.512 172.327C70.0697 172.327 0 242.404 0 328.839C0 415.281 70.0697 485.358 156.512 485.358C188.883 485.358 218.949 475.524 243.908 458.696C229.627 446.448 217.144 431.631 207.215 414.437Z" fill="#3F79AD"/>
</svg>
